**harm	**harte	**timestamp	**phrase	**leadinstrument	**kern
*M4/4	*M4/4	*	*	*	*
*G:	*G:	*	*	*	*G:
1r;	N	0	.	r	1r;
=1	=1	=1	=1	=1	=1
*>A_intro	*>A_intro	*>A_intro	*>A_intro	*>A_intro	*>A_intro
1I	G:maj	0.302	newline	piano	1G 1b 1dd
=2	=2	=2	=2	=2	=2
1I	G:maj	2.573	.	piano	1G 1b 1dd
=3	=3	=3	=3	=3	=3
1I	G:maj	4.844	.	piano	1G 1b 1dd
=4	=4	=4	=4	=4	=4
1I	G:maj	7.116	.	piano	1G 1b 1dd
=5	=5	=5	=5	=5	=5
*>B_verse	*>B_verse	*>B_verse	*>B_verse	*>B_verse	*>B_verse
1I	G:maj	9.387	newline	voice	1G 1b 1dd
=6	=6	=6	=6	=6	=6
1I	G:maj	11.592	.	voice	1G 1b 1dd
=7	=7	=7	=7	=7	=7
1iii	B:min	13.797	.	voice	1B 1dd 1ff#
=8	=8	=8	=8	=8	=8
1iii	B:min	16.002	.	voice	1B 1dd 1ff#
=9	=9	=9	=9	=9	=9
1IV	C:maj	18.207	newline	voice	1C 1e 1g
=10	=10	=10	=10	=10	=10
1I	G:maj	20.421	.	voice	1G 1b 1dd
=11	=11	=11	=11	=11	=11
1V	D:maj	22.635	.	voice	1D 1f# 1a
=12	=12	=12	=12	=12	=12
1IV	C:maj	24.85	.	voice	1C 1e 1g
=13	=13	=13	=13	=13	=13
1I	G:maj	27.064	newline	voice	1G 1b 1dd
=14	=14	=14	=14	=14	=14
1I	G:maj	29.285	.	voice	1G 1b 1dd
=15	=15	=15	=15	=15	=15
1iii	B:min	31.507	.	voice	1B 1dd 1ff#
=16	=16	=16	=16	=16	=16
1iii	B:min	33.728	.	voice	1B 1dd 1ff#
=17	=17	=17	=17	=17	=17
1IV	C:maj	35.95	newline	voice	1C 1e 1g
=18	=18	=18	=18	=18	=18
1I	G:maj	38.145	.	voice	1G 1b 1dd
=19	=19	=19	=19	=19	=19
1IV	C:maj	40.34	.	voice	1C 1e 1g
=20	=20	=20	=20	=20	=20
1V	D:maj	42.535	.	voice	1D 1f# 1a
=21	=21	=21	=21	=21	=21
1V	D:maj	44.73	.	voice	1D 1f# 1a
=22	=22	=22	=22	=22	=22
*>C_chorus	*>C_chorus	*>C_chorus	*>C_chorus	*>C_chorus	*>C_chorus
2vi	E:min	46.925	newline	voice	2E 2g 2b
2V	D:maj	48.024	.	voice	2D 2f# 2a
=23	=23	=23	=23	=23	=23
1I	G:maj	49.123	.	voice	1G 1b 1dd
=24	=24	=24	=24	=24	=24
2vi	E:min	51.321	.	voice	2E 2g 2b
2IV	C:maj	52.42	.	voice	2C 2e 2g
=25	=25	=25	=25	=25	=25
1I	G:maj	53.519	.	voice	1G 1b 1dd
=26	=26	=26	=26	=26	=26
2vi	E:min	55.716	newline	voice	2E 2g 2b
2V	D:maj	56.82	.	voice	2D 2f# 2a
=27	=27	=27	=27	=27	=27
1IV	C:maj	57.924	.	voice	1C 1e 1g
=28	=28	=28	=28	=28	=28
1IV	C:maj	60.132	.	voice	1C 1e 1g
=29	=29	=29	=29	=29	=29
1V	D:maj	62.339	.	voice	1D 1f# 1a
=30	=30	=30	=30	=30	=30
1I	G:maj	64.547	newline	voice	1G 1b 1dd
=31	=31	=31	=31	=31	=31
1iii	B:min	66.723	.	voice	1B 1dd 1ff#
=32	=32	=32	=32	=32	=32
1IV	C:maj	68.899	.	voice	1C 1e 1g
=33	=33	=33	=33	=33	=33
1I	G:maj	71.076	.	voice	1G 1b 1dd
=34	=34	=34	=34	=34	=34
2IV	C:maj	73.252	newline	voice	2C 2e 2g
2iii	B:min	74.347	.	voice	2B 2dd 2ff#
=35	=35	=35	=35	=35	=35
2ii	A:min	75.442	.	voice	2A 2cc 2ee
2IV	C:maj	76.538	.	voice	2C 2e 2g
=36	=36	=36	=36	=36	=36
*>A_trans	*>A_trans	*>A_trans	*>A_trans	*>A_trans	*>A_trans
1I	G:maj	77.633	->newline	piano	1G 1b 1dd
=37	=37	=37	=37	=37	=37
1I	G:maj	79.816	.	piano	1G 1b 1dd
=38	=38	=38	=38	=38	=38
1I	G:maj	82	.	piano	1G 1b 1dd
=39	=39	=39	=39	=39	=39
1I	G:maj	84.184	.	piano	1G 1b 1dd
=40	=40	=40	=40	=40	=40
*>B_verse	*>B_verse	*>B_verse	*>B_verse	*>B_verse	*>B_verse
1I	G:maj	86.367	newline	voice	1G 1b 1dd
=41	=41	=41	=41	=41	=41
1I	G:maj	88.585	.	voice	1G 1b 1dd
=42	=42	=42	=42	=42	=42
1iii	B:min	90.802	.	voice	1B 1dd 1ff#
=43	=43	=43	=43	=43	=43
1iii	B:min	93.02	.	voice	1B 1dd 1ff#
=44	=44	=44	=44	=44	=44
1IV	C:maj	95.237	newline	voice	1C 1e 1g
=45	=45	=45	=45	=45	=45
1I	G:maj	97.446	.	voice	1G 1b 1dd
=46	=46	=46	=46	=46	=46
1V	D:maj	99.654	.	voice	1D 1f# 1a
=47	=47	=47	=47	=47	=47
1IV	C:maj	101.863	.	voice	1C 1e 1g
=48	=48	=48	=48	=48	=48
1I	G:maj	104.071	newline	voice	1G 1b 1dd
=49	=49	=49	=49	=49	=49
1I	G:maj	106.281	.	voice	1G 1b 1dd
=50	=50	=50	=50	=50	=50
1iii	B:min	108.49	.	voice	1B 1dd 1ff#
=51	=51	=51	=51	=51	=51
1iii	B:min	110.7	.	voice	1B 1dd 1ff#
=52	=52	=52	=52	=52	=52
1IV	C:maj	112.909	newline	voice	1C 1e 1g
=53	=53	=53	=53	=53	=53
1I	G:maj	115.104	.	voice	1G 1b 1dd
=54	=54	=54	=54	=54	=54
1IV	C:maj	117.299	.	voice	1C 1e 1g
=55	=55	=55	=55	=55	=55
1V	D:maj	119.493	.	voice	1D 1f# 1a
=56	=56	=56	=56	=56	=56
1V	D:maj	121.688	.	voice	1D 1f# 1a
=57	=57	=57	=57	=57	=57
*>C_chorus	*>C_chorus	*>C_chorus	*>C_chorus	*>C_chorus	*>C_chorus
2vi	E:min	123.883	newline	voice	2E 2g 2b
2V	D:maj	124.986	.	voice	2D 2f# 2a
=58	=58	=58	=58	=58	=58
1I	G:maj	126.088	.	voice	1G 1b 1dd
=59	=59	=59	=59	=59	=59
2vi	E:min	128.292	.	voice	2E 2g 2b
2IV	C:maj	129.395	.	voice	2C 2e 2g
=60	=60	=60	=60	=60	=60
1I	G:maj	130.497	.	voice	1G 1b 1dd
=61	=61	=61	=61	=61	=61
2vi	E:min	132.702	newline	voice	2E 2g 2b
2V	D:maj	133.794	.	voice	2D 2f# 2a
=62	=62	=62	=62	=62	=62
1IV	C:maj	134.886	.	voice	1C 1e 1g
=63	=63	=63	=63	=63	=63
1IV	C:maj	137.07	.	voice	1C 1e 1g
=64	=64	=64	=64	=64	=64
1V	D:maj	139.255	.	voice	1D 1f# 1a
=65	=65	=65	=65	=65	=65
1I	G:maj	141.439	newline	voice	1G 1b 1dd
=66	=66	=66	=66	=66	=66
1iii	B:min	143.629	.	voice	1B 1dd 1ff#
=67	=67	=67	=67	=67	=67
1IV	C:maj	145.819	.	voice	1C 1e 1g
=68	=68	=68	=68	=68	=68
1I	G:maj	148.008	.	voice	1G 1b 1dd
=69	=69	=69	=69	=69	=69
2IV	C:maj	150.198	newline	voice	2C 2e 2g
2iii	B:min	151.309	.	voice	2B 2dd 2ff#
=70	=70	=70	=70	=70	=70
2ii	A:min	152.419	.	voice	2A 2cc 2ee
2IV	C:maj	153.529	.	voice	2C 2e 2g
=71	=71	=71	=71	=71	=71
*>A_trans	*>A_trans	*>A_trans	*>A_trans	*>A_trans	*>A_trans
1I	G:maj	154.64	->newline	piano	1G 1b 1dd
=72	=72	=72	=72	=72	=72
1I	G:maj	156.795	.	piano	1G 1b 1dd
=73	=73	=73	=73	=73	=73
1I	G:maj	158.951	.	piano	1G 1b 1dd
=74	=74	=74	=74	=74	=74
1I	G:maj	161.107	.	piano	1G 1b 1dd
=75	=75	=75	=75	=75	=75
*>B_solo	*>B_solo	*>B_solo	*>B_solo	*>B_solo	*>B_solo
1I	G:maj	163.262	newline	piano	1G 1b 1dd
=76	=76	=76	=76	=76	=76
1I	G:maj	165.459	.	piano	1G 1b 1dd
=77	=77	=77	=77	=77	=77
1iii	B:min	167.656	.	piano	1B 1dd 1ff#
=78	=78	=78	=78	=78	=78
1iii	B:min	169.853	.	piano	1B 1dd 1ff#
=79	=79	=79	=79	=79	=79
1IV	C:maj	172.05	newline	piano	1C 1e 1g
=80	=80	=80	=80	=80	=80
1I	G:maj	174.235	.	piano	1G 1b 1dd
=81	=81	=81	=81	=81	=81
1V	D:maj	176.42	.	piano	1D 1f# 1a
=82	=82	=82	=82	=82	=82
1IV	C:maj	178.605	.	piano	1C 1e 1g
=83	=83	=83	=83	=83	=83
1I	G:maj	180.791	newline	piano	1G 1b 1dd
=84	=84	=84	=84	=84	=84
1I	G:maj	183	.	piano	1G 1b 1dd
=85	=85	=85	=85	=85	=85
1iii	B:min	185.209	.	piano	1B 1dd 1ff#
=86	=86	=86	=86	=86	=86
1iii	B:min	187.419	.	piano	1B 1dd 1ff#
=87	=87	=87	=87	=87	=87
1IV	C:maj	189.628	newline	piano	1C 1e 1g
=88	=88	=88	=88	=88	=88
1I	G:maj	191.815	.	piano	1G 1b 1dd
=89	=89	=89	=89	=89	=89
1IV	C:maj	194.002	.	piano	1C 1e 1g
=90	=90	=90	=90	=90	=90
1V	D:maj	196.189	.	piano	1D 1f# 1a
=91	=91	=91	=91	=91	=91
1V	D:maj	198.376	.	piano	1D 1f# 1a
=92	=92	=92	=92	=92	=92
*>C_chorus	*>C_chorus	*>C_chorus	*>C_chorus	*>C_chorus	*>C_chorus
2vi	E:min	200.563	newline	voice	2E 2g 2b
2V	D:maj	201.651	.	voice	2D 2f# 2a
=93	=93	=93	=93	=93	=93
1I	G:maj	202.738	.	voice	1G 1b 1dd
=94	=94	=94	=94	=94	=94
2vi	E:min	204.912	.	voice	2E 2g 2b
2IV	C:maj	205.999	.	voice	2C 2e 2g
=95	=95	=95	=95	=95	=95
1I	G:maj	207.086	.	voice	1G 1b 1dd
=96	=96	=96	=96	=96	=96
2vi	E:min	209.261	newline	voice	2E 2g 2b
2V	D:maj	210.355	.	voice	2D 2f# 2a
=97	=97	=97	=97	=97	=97
1IV	C:maj	211.449	.	voice	1C 1e 1g
=98	=98	=98	=98	=98	=98
1IV	C:maj	213.638	.	voice	1C 1e 1g
=99	=99	=99	=99	=99	=99
1V	D:maj	215.826	.	voice	1D 1f# 1a
=100	=100	=100	=100	=100	=100
1I	G:maj	218.015	newline	voice	1G 1b 1dd
=101	=101	=101	=101	=101	=101
1iii	B:min	220.19	.	voice	1B 1dd 1ff#
=102	=102	=102	=102	=102	=102
1IV	C:maj	222.364	.	voice	1C 1e 1g
=103	=103	=103	=103	=103	=103
1I	G:maj	224.539	.	voice	1G 1b 1dd
=104	=104	=104	=104	=104	=104
2IV	C:maj	226.714	newline	voice	2C 2e 2g
2iii	B:min	227.824	.	voice	2B 2dd 2ff#
=105	=105	=105	=105	=105	=105
2ii	A:min	228.935	.	voice	2A 2cc 2ee
2IV	C:maj	230.045	.	voice	2C 2e 2g
=106	=106	=106	=106	=106	=106
*>A_trans	*>A_trans	*>A_trans	*>A_trans	*>A_trans	*>A_trans
1I	G:maj	231.155	newline	piano	1G 1b 1dd
=107	=107	=107	=107	=107	=107
1I	G:maj	233.286	.	piano	1G 1b 1dd
=108	=108	=108	=108	=108	=108
2IV	C:maj	235.417	newline	voice	2C 2e 2g
2iii	B:min	236.502	.	voice	2B 2dd 2ff#
=109	=109	=109	=109	=109	=109
1V	D:maj	237.587	.	voice	1D 1f# 1a
=110	=110	=110	=110	=110	=110
1V	D:maj	239.758	.	voice	1D 1f# 1a
=111	=111	=111	=111	=111	=111
*>D_outro	*>D_outro	*>D_outro	*>D_outro	*>D_outro	*>D_outro
1IV	C:maj	241.928	newline	voice	1C 1e 1g
=112	=112	=112	=112	=112	=112
1IV	C:maj	244.123	.	voice	1C 1e 1g
=113	=113	=113	=113	=113	=113
1I	G:maj	246.319	.	voice	1G 1b 1dd
=114	=114	=114	=114	=114	=114
1I	G:maj	248.514	.	voice	1G 1b 1dd
=115	=115	=115	=115	=115	=115
1IV	C:maj	250.71	newline	voice	1C 1e 1g
=116	=116	=116	=116	=116	=116
1IV	C:maj	252.856	.	voice	1C 1e 1g
=117	=117	=117	=117	=117	=117
1I	G:maj	255.002	.	voice	1G 1b 1dd
=118	=118	=118	=118	=118	=118
1I	G:maj	257.148	.	voice	1G 1b 1dd
=119	=119	=119	=119	=119	=119
1IV	C:maj	259.295	newline	voice	1C 1e 1g
=120	=120	=120	=120	=120	=120
1IV	C:maj	261.452	.	voice	1C 1e 1g
=121	=121	=121	=121	=121	=121
1I	G:maj	263.61	.	voice	1G 1b 1dd
=122	=122	=122	=122	=122	=122
1I	G:maj	265.768	.	voice	1G 1b 1dd
=123	=123	=123	=123	=123	=123
1IV	C:maj	267.926	newline	voice	1C 1e 1g
=124	=124	=124	=124	=124	=124
1IV	C:maj	270.064	.	voice	1C 1e 1g
=125	=125	=125	=125	=125	=125
1I	G:maj	272.203	.	voice	1G 1b 1dd
=126	=126	=126	=126	=126	=126
1I	G:maj	274.342	.	voice	1G 1b 1dd
=127	=127	=127	=127	=127	=127
1IV	C:maj	276.481	newline	voice	1C 1e 1g
=128	=128	=128	=128	=128	=128
1IV	C:maj	278.656	.	voice	1C 1e 1g
=129	=129	=129	=129	=129	=129
1I	G:maj	280.831	.	voice	1G 1b 1dd
=130	=130	=130	=130	=130	=130
1I	G:maj	283.007	.	voice	1G 1b 1dd
=131	=131	=131	=131	=131	=131
1IV	C:maj	285.182	newline	voice	1C 1e 1g
=132	=132	=132	=132	=132	=132
1IV	C:maj	287.331	.	voice	1C 1e 1g
=133	=133	=133	=133	=133	=133
1I	G:maj	289.479	.	voice	1G 1b 1dd
=134	=134	=134	=134	=134	=134
1I	G:maj	291.628	.	voice	1G 1b 1dd
=135	=135	=135	=135	=135	=135
1IV	C:maj	293.777	newline	voice	1C 1e 1g
=136	=136	=136	=136	=136	=136
1IV	C:maj	295.927	.	voice	1C 1e 1g
=137	=137	=137	=137	=137	=137
1I	G:maj	298.077	.	voice	1G 1b 1dd
=138	=138	=138	=138	=138	=138
1I	G:maj	300.227	.	voice	1G 1b 1dd
=139	=139	=139	=139	=139	=139
*>_fadeout	*>_fadeout	*>_fadeout	*>_fadeout	*>_fadeout	*>_fadeout
1IV	C:maj	302.377	newline	voice	1C 1e 1g
=140	=140	=140	=140	=140	=140
1IV	C:maj	304.535	.	voice	1C 1e 1g
=141	=141	=141	=141	=141	=141
1I	G:maj	306.693	.	voice	1G 1b 1dd
=142	=142	=142	=142	=142	=142
1I	G:maj	308.851	.	voice	1G 1b 1dd
=143	=143	=143	=143	=143	=143
1IV	C:maj	311.009	newline	voice	1C 1e 1g
=144	=144	=144	=144	=144	=144
1IV	C:maj	313.182	.	voice	1C 1e 1g
=145	=145	=145	=145	=145	=145
1I	G:maj	315.356	.	voice	1G 1b 1dd
=146	=146	=146	=146	=146	=146
1I	G:maj	317.529	.	voice	1G 1b 1dd
=147	=147	=147	=147	=147	=147
1IV	C:maj	319.703	newline	voice	1C 1e 1g
=148	=148	=148	=148	=148	=148
1IV	C:maj	321.993	.	voice	1C 1e 1g
=149	=149	=149	=149	=149	=149
1I	G:maj	324.284	.	voice	1G 1b 1dd
=150	=150	=150	=150	=150	=150
1I	G:maj	326.574	.	voice	1G 1b 1dd
1r;	N	328.864	.	r	1r;
1r;	N	333.871	.	r	1r;
*-	*-	*-	*-	*-	*-
!!!OTL: Against The Wind
!!!COC: Bob Seger
!!!BillboardChartDate: 1980/07/05
!!!BillboardPeak: 5
!!!BillboardWeeksOnChart: 17
!!!SampleTargetRank: 6
!!!SampleActualRank: 6
!!!SampleID#: 1177
!!!RDF**harmony: **recip + pitch class of root + harmonic quality
!!!RDF**harte: Chris Harte's syntax, used by MIREX
!!!RDF**phrase: newline = linebreak in original McGill transcription
!!!RDF**timestamp: McGill audio timestamp in seconds
!!!RDF**leadinstrument: original McGill primary instrumentation annotation
!!!RDT: 2017/01/12/
!!!ENC: Nathaniel Condit-Schultz
!!!EST: Awating manual error checking and editing.
